X: 1
T: Calum Donaldson
C: R.Cooper
R: reel
Z: 1997 by John Chambers <jc:trillian.mit.edu>
M: C|
L: 1/8
K: A
E2 \
| "A"EAAG ABcd | eAcA eAcA | "Bm"Bffe f3g | "D"afec "E7"BdcB |
| "A"EAAG ABcd | eAcA eAcA | "F#m"cffe "D"fgaf | "E7"ecBc "A"A2 :|
|| e2 \
| "A"agab agfe | fedc dcBA | "Bm"Bffe f3g | "D"afec "E7"Befg |
| "A"agab agfe | fedc dcBA | "F#m"cffe "D"fgaf | "E7"ecBc "A"A2 ||
|| e2 \
| "A"agab agfe | fedc dcBA | "Bm"Bffe f3g | "D"afec "E7"BdcB |
| "A"EAAG ABcd | eAcA eAcA | "F#m"cffe "D"fgaf | "E7"ecBc "A"A2 |]
